X:44
T:AULDLNG1- Auld lang Syne
S:Orpheus Caledonius, I, 1733
Q:1/4=120
L:1/4
M:C|
K:Dm
c|f3/2g/ (f/g/)a|cA(B/A/) (G/F/)|f3/2g/a(g/f/)|d3c|\
f3/2g/ (f/g/)a|c(B/A/)A(G/F/)|f3/2g/{fg}a(g/f/)|d3||\
f|A(G/F/) (FG/) A/|B3/2A/GA|c3/2d/c(B/A/)|f3c|A(G/F/)F(G/A/)|\
B3/2A/GA|c3/2d/ (c/d/c/A/)|c3|
